X: 7688
T: Coleraine, The
R: jig
M: 6/8
K: Aminor
|:"Am"EAA ABc|"Em"Bee e2d|"Am"cBA ABc|"E"B^GE E2 D|
"Am"EAA ABc|"Em"Bee e2d|"Am"cBA "E"B^GE|"Am"AAA A3:|
|:"Am"c2 c cdc|"E"Beee2^g|"Am"aed cBA|"E"^GBA EBA|
"Am"EAA ABc|"A"cde "Dm"fed|"Am"cBA "E"B^GE|"Am"AAA A3:|

